flaticon/symbols/stone.svg

<svg xmlns="http://www.w3.org/2000/svg" width="32" height="32" viewBox="0 0 24 24">
    <path d="M 21.535156 8.023438 L 17.300781 0.324219 C 17.191406 0.125 16.980469 0 16.753906 0 L 7.246094 0 C 7.019531 0 6.808594 0.125 6.699219 0.324219 L 2.464844 8.023438 C 2.359375 8.21875 2.363281 8.449219 2.476562 8.644531 C 2.589844 8.835938 2.789062 8.949219 3.011719 8.949219 L 10.78125 8.949219 L 10.78125 20.179688 C 10.40625 20.117188 10.007812 20.226562 9.71875 20.511719 C 9.488281 20.742188 9.359375 21.046875 9.359375 21.367188 C 9.359375 21.691406 9.488281 21.996094 9.71875 22.226562 L 11.148438 23.648438 C 11.382812 23.882812 11.695312 24 12.003906 24 C 12.316406 24 12.628906 23.882812 12.863281 23.648438 L 14.292969 22.226562 C 14.523438 21.996094 14.648438 21.691406 14.648438 21.371094 C 14.648438 21.046875 14.523438 20.742188 14.292969 20.511719 C 14.003906 20.222656 13.597656 20.113281 13.21875 20.179688 L 13.21875 8.949219 L 20.988281 8.949219 C 21.210938 8.949219 21.410156 8.835938 21.527344 8.644531 C 21.640625 8.449219 21.644531 8.21875 21.535156 8.023438 Z M 12.40625 8.136719 L 12.40625 21.835938 L 13.148438 21.089844 C 13.308594 20.933594 13.5625 20.933594 13.71875 21.089844 C 13.796875 21.164062 13.835938 21.265625 13.835938 21.371094 C 13.835938 21.476562 13.796875 21.574219 13.71875 21.648438 L 12.289062 23.070312 C 12.132812 23.226562 11.878906 23.226562 11.722656 23.070312 L 10.292969 21.648438 C 10.214844 21.574219 10.175781 21.476562 10.175781 21.371094 C 10.175781 21.265625 10.214844 21.164062 10.292969 21.089844 C 10.371094 21.011719 10.46875 20.972656 10.570312 20.972656 C 10.671875 20.972656 10.773438 21.011719 10.851562 21.089844 L 11.59375 21.828125 L 11.59375 8.136719 L 3.332031 8.136719 L 7.359375 0.8125 L 16.640625 0.8125 L 20.667969 8.136719 Z M 12.40625 8.136719"/>
    <path d="M 7.839844 1.628906 L 4.707031 7.324219 L 19.292969 7.324219 L 16.160156 1.628906 Z M 6.082031 6.507812 L 8.320312 2.441406 L 15.679688 2.441406 L 17.917969 6.507812 Z M 6.082031 6.507812"/>
</svg>

<svg xmlns="http://www.w3.org/2000/svg" width="32" height="32" viewBox="0 0 24 24">
    <path d="M21.535 8.023L17.301.324A.626.626 0 0 0 16.754 0H7.246A.626.626 0 0 0 6.7.324l-4.234 7.7a.63.63 0 0 0 .012.62.615.615 0 0 0 .535.305h7.77v11.23a1.222 1.222 0 0 0-1.063.333c-.23.23-.36.535-.36.855 0 .324.13.63.36.86l1.43 1.421c.234.235.546.352.855.352.312 0 .625-.117.86-.352l1.429-1.421c.23-.23.355-.536.355-.856a1.205 1.205 0 0 0-1.43-1.191V8.95h7.77a.626.626 0 0 0 .54-.305.62.62 0 0 0 .007-.622zm-9.129.114v13.699l.742-.746a.406.406 0 0 1 .57 0 .384.384 0 0 1 .118.281c0 .106-.04.203-.117.277l-1.43 1.422a.4.4 0 0 1-.566 0l-1.43-1.422a.375.375 0 0 1-.117-.277c0-.105.039-.207.117-.281a.388.388 0 0 1 .277-.117c.102 0 .203.039.282.117l.742.738V8.137H3.332L7.359.812h9.282l4.027 7.325zm0 0"/>
    <path d="M7.84 1.629L4.707 7.324h14.586L16.16 1.63zM6.082 6.508L8.32 2.44h7.36l2.238 4.067zm0 0"/>
</svg>
